X:108
T:The History Man
M:4/4
L:1/8
K:G
BA|:G3A BAGA|B2 d2 edBA|G3A BAGA|B2dB A2BA|
  |G3A BAGA|B2d2 d2Bd|e3 e dBAG|A3 B AGEG|
  |c3B AGEG|A3B AGEG|1A6 BA:|2 A3G AGAB|
  |:c3d efg2|ag ed GB d2|efg3 a gf|e6 d2|
  |efg2 f2ed|B2A2 GFGA|B2AGFA|1G3A AGAB:|2G6 BA|
